brandFactory_export/3.Masa/Servicio tecnico Internet_3Masa.svg

<?xml version="1.0" encoding="UTF-8"?>
<svg width="24px" height="24px" viewBox="0 0 24 24" version="1.1" xmlns="http://www.w3.org/2000/svg" xmlns:xlink="http://www.w3.org/1999/xlink">
    <title>3.Masa/Servicio tecnico Internet_3Masa</title>
    <g id="Symbols" stroke="none" stroke-width="1" fill="none" fill-rule="evenodd">
        <g id="3.Masa/Servicio-tecnico-Internet_3Masa" fill="#5CB615" fill-rule="nonzero">
            <path d="M22.9176471,20.0890756 L0.712605042,20.0890756 C0.342857143,20.0890756 0.0403361345,19.7865546 0.0403361345,19.4168067 C0.0403361345,19.0470588 0.342857143,18.7445378 0.712605042,18.7445378 L22.9176471,18.7445378 C23.287395,18.7445378 23.589916,19.0470588 23.589916,19.4168067 C23.589916,19.7865546 23.287395,20.0890756 22.9176471,20.0890756 L22.9176471,20.0890756 Z M23.6302521,7.27563025 L23.6302521,13.2016807 C23.6302521,14.5394958 23.3109244,15.5815126 22.6857143,16.3008403 C22.010084,17.0739496 21.0016807,17.4672269 19.6806723,17.4672269 L3.94957983,17.4672269 C2.63193277,17.4672269 1.62016807,17.0739496 0.944537815,16.3042017 C0.319327731,15.5815126 0,14.5394958 0,13.2016807 L0,7.27563025 C0,5.93781513 0.319327731,4.89579832 0.944537815,4.17647059 C1.62016807,3.40336134 2.62857143,3.01008403 3.94957983,3.01008403 L19.6806723,3.01008403 C20.9983193,3.01008403 22.010084,3.40336134 22.6857143,4.17647059 C23.3109244,4.89579832 23.6302521,5.93781513 23.6302521,7.27563025 Z M9.62689076,12.5596639 C9.6907563,12.4084034 9.80504202,12.2840336 9.94957983,12.2033613 L14.5344538,10.0655462 C14.6890756,10.005042 14.8571429,9.99831933 15.0151261,10.0453782 C15.0151261,10.0453782 16.1109244,10.4487395 16.7932773,10.1327731 C17.4722689,9.81680672 17.8689076,8.71428571 17.8689076,8.71428571 C17.9159664,8.57983193 17.8521008,8.51932773 17.7210084,8.57983193 L17.0588235,8.88907563 C16.907563,8.94957983 16.7394958,8.94285714 16.594958,8.87563025 L15.9327731,8.52268908 C15.8016807,8.44537815 15.7310924,8.29411765 15.7579832,8.14621849 L15.912605,7.41344538 C15.9563025,7.25882353 16.0605042,7.12436975 16.2016807,7.05042017 L16.8638655,6.74117647 C16.994958,6.68067227 16.9915966,6.58991597 16.8537815,6.54285714 C16.8537815,6.54285714 15.7579832,6.1394958 15.0756303,6.45546218 C14.3932773,6.77142857 14,7.87394958 14,7.87394958 C13.9361345,8.02521008 13.8218487,8.14957983 13.6773109,8.22689076 L9.08907563,10.3647059 C8.93445378,10.4252101 8.76638655,10.4319328 8.60840336,10.3848739 C8.60840336,10.3848739 7.51260504,9.98151261 6.8302521,10.297479 C6.14789916,10.6134454 5.75462185,11.7159664 5.75462185,11.7159664 C5.70756303,11.8504202 5.77142857,11.9109244 5.90252101,11.8504202 L6.56470588,11.5411765 C6.71596639,11.4806723 6.88403361,11.487395 7.02857143,11.5546218 L7.68739496,11.907563 C7.81848739,11.9848739 7.88907563,12.1361345 7.86218487,12.2840336 L7.70756303,13.0168067 C7.66386555,13.1714286 7.55966387,13.3058824 7.41848739,13.3798319 L6.75630252,13.6890756 C6.62521008,13.7495798 6.62857143,13.8403361 6.76638655,13.8907563 C6.76638655,13.8907563 7.86218487,14.2941176 8.54453782,13.9781513 C9.22689076,13.6621849 9.62689076,12.5596639 9.62689076,12.5596639 L9.62689076,12.5596639 Z" id="Servicio-tecnico-Internet_3Masa"></path>
        </g>
    </g>
</svg>

<svg width="24" height="24" viewBox="0 0 24 24" xmlns="http://www.w3.org/2000/svg"><path d="M22.918 20.09H.713a.674.674 0 01-.673-.673c0-.37.303-.672.673-.672h22.205c.37 0 .672.302.672.672 0 .37-.303.672-.672.672zm.712-12.814v5.926c0 1.337-.32 2.38-.944 3.099-.676.773-1.684 1.166-3.005 1.166H3.95c-1.318 0-2.33-.393-3.005-1.163C.319 15.582 0 14.54 0 13.202V7.276c0-1.338.32-2.38.945-3.1C1.62 3.403 2.629 3.01 3.95 3.01h15.73c1.318 0 2.33.393 3.006 1.166.625.72.944 1.762.944 3.1zM9.627 12.56a.739.739 0 01.323-.357l4.584-2.137a.737.737 0 01.481-.02s1.096.403 1.778.087c.68-.316 1.076-1.419 1.076-1.419.047-.134-.017-.195-.148-.134l-.662.31a.585.585 0 01-.464-.014l-.662-.353a.364.364 0 01-.175-.377l.155-.733a.591.591 0 01.289-.363l.662-.309c.131-.06.128-.151-.01-.198 0 0-1.096-.404-1.778-.088C14.393 6.771 14 7.874 14 7.874a.717.717 0 01-.323.353L9.09 10.365a.737.737 0 01-.48.02s-1.096-.403-1.779-.088c-.682.316-1.075 1.419-1.075 1.419-.047.134.016.195.148.134l.662-.309a.585.585 0 01.464.014l.658.353a.364.364 0 01.175.376l-.154.733a.591.591 0 01-.29.363l-.662.31c-.13.06-.127.15.01.2 0 0 1.096.404 1.779.088.682-.316 1.082-1.418 1.082-1.418z" fill="#5CB615" fill-rule="nonzero"/></svg>
